X:110
T:Daley's Reel
C:Traditional
N:Transcribed by Mike Stangeland
R:bluegrass
L:1/8
Q:1/4=225
M:4/4
K:G
z6 B,D |: "G"G2 BA GD B,D | GA BG cB AG | "D"FG AF DF AF | DF AB cB AF | "G"G2 BA GD B,D | 
GA BG cB AG | "D"FG AG FD EF |1 "G"GF GA G2 B,D :|2 "G"GF GA G2 cd | "C"e2 eg ed cG | 
E^D E=F GF E2 | "G"d2 de dB GD | B,^A, B,C DC B,2 | "D"DE FA c2 c2 | "G"DE GA B2 B2 | 
"D"A2 AB cB AF | "G"GF GA Bc d^d | "C"e2 eg ed cG | E^D E=F GF E2 | "G"d2 de dB GD | 
B,^A, B,C DC B,2 | "D"DE FA c2 c2 | "G"DE GA B2 B2 | "D"A^G AB cB AF | "G"GE DB, G,4 | 
z8 | 




